!!!COM: Palestrina, Giovanni Perluigi da
!!!OPR: Missa O virgo simul et mater
!!!OMD: Benedictus
!!!OTL: First Section
**kern	**kern	**kern	**kern
*Ibass	*Itenor	*Icalto	*Icalto
!Bassus	!Tenor	!Altus 2	!Altus 1
*clefF4	*clefGv2	*clefG2	*clefG2
*k[b-]	*k[b-]	*k[b-]	*k[b-]
*G:dor	*G:dor	*G:dor	*G:dor
*M4/2	*M4/2	*M4/2	*M4/2
=1	=1	=1	=1
0r	0r	1.a	0r
.	.	2g	.
=2	=2	=2	=2
0r	0r	1a	2r
.	.	.	1a
.	.	2d	.
.	.	2e	2g
=3	=3	=3	=3
0r	1.d	2.f	1a
.	.	4d	.
.	.	2f	2d
.	2c	[2e	2e
=4	=4	=4	=4
0r	1d	4e]	1f
.	.	4d	.
.	.	1d	.
.	2G	.	1e
.	2A	2c#	.
=5	=5	=5	=5
2r	1B-	4d	1d
.	.	4e	.
1d	.	4f	.
.	.	4g	.
.	1A	1a	1e
2c	.	.	.
=6	=6	=6	=6
1d	2r	2r	1f
.	1d	2a	.
2G	.	2b-	2g
2A	2c	2a	[2f
=7	=7	=7	=7
1B-	1d	2f	4f]
.	.	.	4e
.	.	2g	1d
1A	2e	[1a	.
.	2e	.	2c#
=8	=8	=8	=8
0r	2.f	1a]	2d
.	.	.	2a
.	4e	.	.
.	4d	2.f	2b-
.	4c	.	.
.	[2d	.	2a
.	.	4e	.
=9	=9	=9	=9
2r	4d]	1.d	2f
.	4c	.	.
1G	2B-	.	2g
.	1A	.	1a
2F#	.	2d	.
=10	=10	=10	=10
1G	2r	1B-	2d
.	2d	.	1g
2C	2e-	1A	.
2D	2d	.	2f#
=11	=11	=11	=11
1E-	2B-	2G	1g
.	2c	1g	.
1D	1d	.	2b-
.	.	2f#	2a
=12	=12	=12	=12
1r	2G	1g	4b-
.	.	.	4a
.	1c	.	4g
.	.	.	4f
2r	.	2c	4e
.	.	.	4f
[2d	2B-	2d	2g
=13	=13	=13	=13
2d]	1A	1e	1a
2c#	.	.	.
1d	2r	2f#	2r
.	[2d	2f#	2a
=14	=14	=14	=14
2G	2d]	2g	2b-
2A	2.f	4f	2a
.	.	4e	.
1B-	.	4d	2f
.	4e	4c	.
.	[2d	2d	2g
=15	=15	=15	=15
1A	2d]	1e	1a
.	2c#	.	.
1r	2d	1f#	1a
.	[2d	.	.
=16	=16	=16	=16
1G	2d]	0r	0r
.	2.g	.	.
2.c	.	.	.
.	4f	.	.
.	2g	.	.
4B-	.	.	.
=17	=17	=17	=17
2c	2.a	1r	0r
2.d	.	.	.
.	4g	.	.
.	4f	1d	.
4c	4e	.	.
4B-	4d	.	.
4A	4c	.	.
=18	=18	=18	=18
4G	2B-	2.g	0r
4F	.	.	.
4E	2.c	.	.
4D	.	4f	.
2E	.	2g	.
.	4B-	.	.
[2F	4A	[2a	.
.	4G	.	.
=19	=19	=19	=19
4F]	4A	4a]	1r
4E	4B-	4g	.
4D	1c	4f	.
4C	.	4e	.
2D	.	2f	2r
2D	2B	2f	2d
=20	=20	=20	=20
1C	2c	2e	2.g
.	2c	2e	.
.	.	.	4f
1r	2c	2e	2g
.	2F	2f	[2a
=21	=21	=21	=21
0r	2A	4f	4a]
.	.	4e	4g
.	2.B-	4d	4f
.	.	4c	4e
.	.	2d	2f
.	4A	.	.
.	4G	[2e	[2g
.	4F	.	.
=22	=22	=22	=22
0r	2G	4e]	4g]
.	.	4d	4f
.	2B-	1d	4f
.	.	.	8e
.	.	.	8d
.	2A	.	1e
.	[2A	2c#	.
=23	=23	=23	=23
1D	2A]	2d	1f#
.	2.d	2a	.
2.G	.	2.b-	1g
.	4c	.	.
.	2d	.	.
4F	.	4a	.
=24	=24	=24	=24
2G	2.e	2g	0r
2.A	.	2.cc	.
.	4d	.	.
.	2c	.	.
4G	.	4b-	.
4F	[2f	4a	.
4E	.	4g	.
=25	=25	=25	=25
2D	4f]	2a	1r
.	4e	.	.
2.G	4d	2.b-	.
.	4c	.	.
.	2B-	.	1G
4F	.	4a	.
4E	[2c	4g	.
4D	.	4f	.
=26	=26	=26	=26
2C	4c]	2g	2.c
.	4B-	.	.
1F	4A	1a	.
.	4G	.	4B-
.	2F	.	1c
2E	2G	[2g	.
=27	=27	=27	=27
1D	2A	2g]	2.d
.	2A	2f#	.
.	.	.	4c
2.G	[1G	2g	4B-
.	.	.	4A
.	.	[2g	2G
4F	.	.	.
=28	=28	=28	=28
4E	1G]	4g]	2.g
4D	.	4f	.
1C	.	4e	.
.	.	4d	4f
.	2r	2c	2e
2BB	[2g	2d	2d
=29	=29	=29	=29
1C	4g]	2.e	2.c
.	4f	.	.
.	4e	.	.
.	4d	4f	4d
1C	2c	2g	2e
.	2c	2g	2e
=30	=30	=30	=30
0G	0B	0g	0d
*-	*-	*-	*-
!!!CDT: 1525/^1526/-1594/2/2
!!!OCY: Italia
!!!AGN: Mass (Parody)
!!!AST: renaissance, vocal
!!!ASW: Motet 1572 (Palestrina)
!!!PWK: Masses, Book 10
!!!RNB: Cadence finals: D
!!!YOR: Le Opere Complete, v. 27, p. 89
!!!YOO: Rome, Italy: Fratelli Scalera
!!!END: 1992//
!!!EED: John Miller
!!!YEC: Copyright 2000, John Miller
!!!YEN: United States of America
!!!YEM: Rights to all derivative electronic formats reserved.
!!!YEM: Refer to licensing agreement for further details.
!!!YEM: This file must be accompanied by the licensing agreement.
!!!YEM: A copy of the licensing agreement may be found at http://www.music-cog.ohio-state.edu/HumdrumDatabases/Palestrina/license.txt
!!!EMD: converted to Humdrum by Bret Aarden
